svg/general/laptop.svg

<svg width="16" height="16" viewBox="0 0 16 16" fill="none" xmlns="http://www.w3.org/2000/svg">
<path d="M15.661 12.423C15.467 12.131 14.283 10.356 14.283 10.356V3.28801C14.2822 2.8716 14.1164 2.47247 13.822 2.17802C13.5275 1.88357 13.1284 1.7178 12.712 1.71701H3.287C2.87076 1.71807 2.47189 1.88395 2.17765 2.17837C1.88342 2.47279 1.71779 2.87177 1.717 3.28801V10.356L0.338998 12.423C0.194638 12.6197 0.126107 12.8619 0.145998 13.105V13.5C0.159772 13.7035 0.246767 13.8951 0.390893 14.0394C0.535019 14.1837 0.726526 14.271 0.929998 14.285H15.07C15.2735 14.271 15.465 14.1837 15.6091 14.0394C15.7532 13.8951 15.8402 13.7035 15.854 13.5V13.107C15.8739 12.8639 15.8054 12.6217 15.661 12.425V12.423ZM5.644 12.712L6.115 11.927H9.885L10.356 12.712H5.644ZM12.712 9.57101H3.287V3.28801H12.712V9.57101Z" fill="black"/>
</svg>

<svg id="Layer_1" data-name="Layer 1" xmlns="http://www.w3.org/2000/svg" viewBox="0 0 16 16"><title>laptop</title><path d="M15.661,12.423c-.194-.292-1.378-2.067-1.378-2.067V3.288a1.574,1.574,0,0,0-1.571-1.571H3.287a1.574,1.574,0,0,0-1.57,1.571v7.068L.339,12.423a1.013,1.013,0,0,0-.193.682V13.5a.844.844,0,0,0,.784.785H15.07a.844.844,0,0,0,.784-.785v-.393a1.013,1.013,0,0,0-.193-.682Zm-10.017.289.471-.785h3.77l.471.785Zm7.068-3.141H3.287V3.288h9.425Z"/></svg>
